!!!COM: Charles Ives
!!!OTL: [T257_Ive-w25p31m56-63]
**kern	**kern	**dynam
!!pagebreak:original
*clefF4	*clefG2	*
*k[]	*k[]	*
*C:	*C:	*
*M2/4	*M2/4	*
=1	=1	=1
*^	*	*
!	!	!LO:TX:t=[quarter]=106	!
!	!	!LO:TX:b:t=[p]	!
!	!	!LO:TX:a:t=[mf]	!
4ryy	4A	.	.
.	.	16d'L	.
.	.	16f'JJ)	.
4ryy	4D#X	.	.
.	.	8e	.
.	.	16g'Jk 16b)	.
=2	=2	=2	=2
8AAL	4AA	[2ff	f
16DL	.	.	.
16B-XJJ	.	.	.
16GGKL	4GG	.	.
8E^	.	.	.
16B-Jk	.	.	.
=3	=3	=3	=3
*	*	*^	*
16AALL	8.AAL	2ff]	16ffKL	mf
16D	.	.	[8.cc#XJ	.
16B-X'	.	.	.	.
16GGJJ	[16GGJk	.	.	.
16GGKL]	4GG	.	8cc#L]	.
8E	.	.	.	.
.	.	.	8dd#XJ	.
16B-Jk	.	.	.	.
=4	=4	=4	=4	=4
16AALL	8.AAL	(8b-XL	4b-	.
16D	.	.	.	.
16B-X'	.	8ddJ)	.	.
16GGJJ	[16GGJk	.	.	.
8EL	16GG]	(8.ddL	4b-^	.
.	16ryy	.	.	.
8B-XJ	8ryy	.	.	.
.	.	16ffJk)	.	.
*	*	*v	*v	*
!!linebreak:original
=5	=5	=5	=5
8AAL	4AA	(4b-X^ 4dd	.
16DL	.	.	.
16B-XJJ	.	.	.
16GGKL	4GG	8g' 8b-)	.
8E^	.	.	.
.	.	([8g^ 8b- 8dd	.
16B-Jk	.	.	.
=6	=6	=6	=6
*	*	*^	*
16AALL	4AA	8g] 8b-Xi 8ff)	8ryy	.
16DJ	.	.	.	.
8B-XJ	.	(8.ff^L	4dd	.
16GGKL	4GG	.	.	.
8E^	.	16aaJk)	.	.
.	.	[8dd^ [8ff	8ryy	.
16B-'Jk	.	.	.	.
*	*	*v	*v	*
=7	=7	=7	=7
16AALL	8.AAL	8dd] 8ff]	.
16D	.	.	.
16B-X'	.	4b-X 4dd	.
16GGJJ	[16GGJk	.	.
8EnL	16GG]	.	.
.	16ryy	.	.
8B-XJ	8ryy	8ryy	.
=8	=8	=8	=8
8AAL	4AA	(4.ffn 4.ddd 4.fff#X	.
16DL	.	.	.
16B-XJJ	.	.	.
16GGKL	4GG	.	.
8E^	.	.	.
.	.	[8gg#X [8eee [8gggn)	.
16B-Jk	.	.	.
*v	*v	*	*
=	=	=
*-	*-	*-
!!!system-decoration: [({(s1,s2)})]
!!!RDF**kern: i = editorial accidental
